!!!!SEGMENT: Gom2003-Suscipe_verbum.krn
!!!id: Gom2003
!!!AGN: Motet
!!!voices: 5
!!!COM: Nicolas Gombert
!!!OTL: Suscipe verbum
**kern	**kern	**kern	**kern	**kern
*part5	*part4	*part3	*part2	*part1
*staff5	*staff4	*staff3	*staff2	*staff1
*I"Bassus	*I"Tenor II	*I"Tenor I	*I"Altus	*I"Superius
*I'B	*I'T. II	*I'T. I	*I'A	*I'S
*clefF4	*clefGv2	*clefGv2	*clefGv2	*clefG2
*k[b-]	*k[b-]	*k[b-]	*k[b-]	*k[b-]
*M2/1	*M2/1	*M2/1	*M2/1	*M2/1
*met(C|)	*met(C|)	*met(C|)	*met(C|)	*met(C|)
!!section: Prima pars: Suscipe verbum
!!!OMD: Prima pars: Suscipe verbum
=1	=1	=1	=1	=1
0r	0r	1.c	0r	0r
.	.	2c	.	.
=	=	=	=	=
0r	0r	1d	0r	0r
.	.	1c	.	.
=	=	=	=	=
1.F	0r	1A	0r	0r
.	.	2r	.	.
2F	.	[2f	.	.
=	=	=	=	=
1G	0r	2f]	0r	0r
.	.	2e	.	.
1F	.	2d	.	.
.	.	2c	.	.
=	=	=	=	=
2D	0r	4B-y	1.f	0r
.	.	4A	.	.
1B-y	.	1d	.	.
2A	.	2c	2f	.
=	=	=	=	=
2B-y	0r	2d	1g	0r
2c	.	2e	.	.
2A	.	2c	1f	.
[2B-y	.	[2d	.	.
=	=	=	=	=
4B-]	0r	4d]	0d	0r
4A	.	4c	.	.
4G	.	4B-y	.	.
4F	.	4A	.	.
1G	.	1B-y	.	.
=	=	=	=	=
2.F	0r	1A	1.f	1.cc
4E	.	.	.	.
1C	.	1G	.	.
.	.	.	2e	2cc
=	=	=	=	=
1BB-y	0r	2.B-y	2f	1dd
.	.	.	2g	.
.	.	4G	.	.
1r	.	1A	2e	1cc
.	.	.	[2f	.
=	=	=	=	=
2r	1.c	1F	2f]	1a
1F	.	.	4e	.
.	.	.	4d	.
.	.	1r	1c	[1cc
2E	2c	.	.	.
=	=	=	=	=
2F	1d	0r	0r	2cc]
2G	.	.	.	2b-y
2E	1c	.	.	2g
[2F	.	.	.	[2a
=	=	=	=	=
4F]	0A	1.r	0r	4a]
4E	.	.	.	4g
4D	.	.	.	4f
4C	.	.	.	4e
1D	.	.	.	1f
.	.	[2f	.	.
=	=	=	=	=
1C	1.c	2f]	1.r	1g
.	.	2e	.	.
1r	.	2f	.	2a
.	2B-y	2g	[2g	2b-y
=	=	=	=	=
0r	2c	2e	2g]	1a
.	2d	2.f	2f	.
.	2B-y	.	2g	1r
.	.	4e	.	.
.	[2c	2e	2a	.
=	=	=	=	=
0r	2c]	1d	2f	1r
.	2B-y	.	1g	.
.	1A	1c	.	[1cc
.	.	.	2f	.
=	=	=	=	=
1.r	1G	2r	2e	2cc]
.	.	1g	2d	2b-y
.	1A	.	1c	2.cc
[2F	.	2f	.	.
.	.	.	.	4dd
=	=	=	=	=
2F]	1G	2.g	2d	2b-y
2E	.	.	2e	1cc
.	.	4a	.	.
2F	2A	2f	1d	.
2G	2B-y	2d	.	[2b-y
=	=	=	=	=
2E	2G	4e	1c	2b-]
.	.	4d	.	.
1F	1A	4c	.	2a
.	.	4B-y	.	.
.	.	1c	1r	2f
2E	2G	.	.	[2g
=	=	=	=	=
1D	2A	1d	1F	4g]
.	.	.	.	4f
.	2B-y	.	.	1f
1C	1G	2r	[1c	.
.	.	2G	.	2e
=	=	=	=	=
2.F	0F	1.A	2c]	1f
.	.	.	2c	.
4E	.	.	.	.
1D	.	.	2d	2r
.	.	4G	[2f	2f
.	.	4F	.	.
=	=	=	=	=
0C	0r	1A	2f]	1.cc
.	.	.	4e	.
.	.	.	4d	.
.	.	2G	2e	.
.	.	2A	2e	2cc
=	=	=	=	=
0r	0r	2B-y	1d	2dd
.	.	1d	.	1ff
.	.	.	[1g	.
.	.	4c	.	4ee
.	.	4B-y	.	4dd
=	=	=	=	=
0r	0r	2c	2g]	2ee
.	.	2B-y	2g	2dd
.	.	1B-y	2f	2dd
.	.	.	2d	[2dd
=	=	=	=	=
0r	0r	2r	2.f	2dd]
.	.	1f	.	2dd
.	.	.	4g	.
.	.	.	1a	2cc
.	.	2f	.	2a
=	=	=	=	=
0r	1C	2e	[0g	2.cc
.	.	2c	.	.
.	.	.	.	8b-yL
.	.	.	.	8aJ
.	[1G	2e	.	2b-y
.	.	2e	.	[2cc
=	=	=	=	=
0r	2G]	1d	1g]	2cc]
.	2G	.	.	2b-y
.	2A	2.c	2.e	2cc
.	[2c	.	.	[2ee
.	.	4d	4f	.
=	=	=	=	=
0r	2c]	2e	2g	2ee]
.	4B-y	1f	1a	4dd
.	4A	.	.	4cc
.	2B-y	.	.	2dd
.	2B-y	4e	2g	2dd
.	.	4d	.	.
=	=	=	=	=
1.F	1A	2.f	2a	0cc
.	.	.	1a	.
.	.	8eL	.	.
.	.	8dJ	.	.
.	2r	1c	.	.
2F	[2c	.	2a	.
=	=	=	=	=
2E	2c]	0r	2g	1.r
2C	2c	.	2e	.
2.E-X	2B-y	.	2.g	.
.	2G	.	.	[2b-y
4F	.	.	4f	.
=	=	=	=	=
1G	2.B-y	1r	2d	2b-]
.	.	.	2e	2b-y
.	4c	.	.	.
2D	1d	[1f	2f	2a
[2F	.	.	[2a	2f
=	=	=	=	=
2F]	0c	2f]	2a]	2.a
4E	.	2f	4g	.
4D	.	.	4f	4b-y
1C	.	2e	[1g	1cc
.	.	2c	.	.
=	=	=	=	=
2r	1.r	2e-X	2g]	2b-y
1F	.	2f	2c	1a
.	.	2.c	1c	.
2F	[2c	.	.	4g
.	.	4d	.	4f
=	=	=	=	=
2E	2c]	2.e	1.r	1g
2C	2c	.	.	.
.	.	4f	.	.
2.E	2B-y	1g	.	1r
.	2G	.	[2g	.
4F	.	.	.	.
=	=	=	=	=
2G	2B-y	0r	2g]	2r
2A	2c	.	2f	1cc
1G	1d	.	2g	.
.	.	.	2d	2b-y
=	=	=	=	=
1C	1c	1.r	1e	2cc
.	.	.	.	2g
1r	1r	.	2d	1a
.	.	[2c	[2e	.
=	=	=	=	=
0r	0r	2c]	4e]	2.g
.	.	.	4c	.
.	.	2B-y	2d	.
.	.	.	.	4b-y
.	.	2c	2e	2a
.	.	2G	[2d	[2g
=	=	=	=	=
0r	2r	1A	2d]	4g]
.	.	.	.	4f
.	1c	.	2c	2f
.	.	1G	1d	2g
.	2B-y	.	.	2dd
=	=	=	=	=
0r	2c	2r	2A	2ee
.	2G	1g	2B-y	2.dd
.	1A	.	1c	.
.	.	.	.	4cc
.	.	2f	.	[2cc
=	=	=	=	=
2r	1G	2g	1d	2cc]
1G	.	2d	.	2b-y
.	2r	2e	1c	2.cc
2F	[2c	2f	.	.
.	.	.	.	4b-y
=	=	=	=	=
2G	4c]	1d	0r	4g
.	4B-y	.	.	4d
2D	2B-y	.	.	4f
.	.	.	.	4g
1E	2c	1r	.	4e
.	.	.	.	4d
.	2G	.	.	[2g
=	=	=	=	=
1D	1A	1d	0r	2g]
.	.	.	.	2f
2r	1G	2e	.	2g
2G	.	2g	.	2b-y
=	=	=	=	=
2A	0r	2f	1c	1a
1c	.	2e	.	.
.	.	2.f	2d	1r
2B-y	.	.	[2f	.
.	.	8eL	.	.
.	.	8dJ	.	.
=	=	=	=	=
2A	0r	2c	2f]	2r
2G	.	2B-y	2e	2g
1F	.	1f	2d	2a
.	.	.	2c	[2cc
=	=	=	=	=
1.r	0r	2e	2g	2cc]
.	.	2d	1f	2b-y
.	.	1c	.	2a
2C	.	.	2e	2g
=	=	=	=	=
2D	1F	1A	2d	2f
1F	.	.	2c	2a
.	2G	2r	1B-y	1g
2E	[2B-y	2G	.	.
=	=	=	=	=
2D	2B-]	2F	1r	0r
2C	2A	2E	.	.
1BB-y	2G	1B-y	1d	.
.	2F	.	.	.
=	=	=	=	=
1C	1E	1G	2e	2r
.	.	.	1g	2g
1r	1A	1c	.	2a
.	.	.	2f	[2cc
=	=	=	=	=
1.r	1G	1d	2g	2cc]
.	.	.	2g	2b-y
.	2F	2f	1c	2a
2C	2G	2e	.	2g
=	=	=	=	=
2D	2B-y	2d	2r	1f
1F	1A	2d	2A	.
.	.	1c	2F	1cc
2E	2G	.	2G	.
=	=	=	=	=
2D	2F	2r	4A	2dd
.	.	.	4F	.
2C	2E	2c	2G	2ee
1BB-y	1D	2d	2.B-y	1ff
.	.	2d	.	.
.	.	.	4A	.
=	=	=	=	=
0C	0E	0c	2G	2.ee
.	.	.	2A	.
.	.	.	.	4cc
.	.	.	1G	1cc
=	=	=	=	=
2r	2r	1c	2.A	0r
1F	1A	.	.	.
.	.	.	4F	.
.	.	2A	1F	.
2D	2F	2B-y	.	.
=	=	=	=	=
2E	2G	2c	2r	0r
2F	2A	1d	2f	.
1G	1B-y	.	2d	.
.	.	4c	2e	.
.	.	4B-y	.	.
=	=	=	=	=
2F	2A	1.c	2f	1.cc
2E	2G	.	2.g	.
2.F	2.A	.	.	.
.	.	.	4f	.
.	.	2c	[2f	2a
4E	4G	.	.	.
=	=	=	=	=
2D	2F	2d	2f]	2b-y
2C	2G	2e	2e	2cc
1BB-y	[1B-y	2f	2d	1dd
.	.	[2g	2B-y	.
=	=	=	=	=
2.F	2B-]	4g]	1c	0cc
.	.	4f	.	.
.	2A	1f	.	.
4E	.	.	.	.
1C	1G	.	2r	.
.	.	2e	[2c	.
=	=	=	=	=
1F	1A	2.f	2c]	1.r
.	.	.	2A	.
.	.	4e	.	.
2G	2r	2d	2B-y	.
2A	[2F	2c	2c	[2a
=	=	=	=	=
1D	2F]	1A	1d	2a]
.	2D	.	.	2f
1r	2E	2r	2B-y	2g
.	2F	2f	[2d	2a
=	=	=	=	=
0r	1G	2d	2d]	1b-y
.	.	2e	4c	.
.	.	.	4B-y	.
.	2F	2f	1c	2a
.	2E	[2g	.	2g
=	=	=	=	=
0r	1F	4g]	2r	1a
.	.	4f	.	.
.	.	1f	2c	.
.	2C	.	2c	1g
.	2c	2e	2c	.
=	=	=	=	=
1F	2c	2f	1A	0f
.	2c	4e	.	.
.	.	4d	.	.
2F	2.A	1c	2r	.
2F	.	.	2f	.
.	4G	.	.	.
=	=	=	=	=
2.D	2A	1d	2f	0r
.	2B-y	.	2f	.
4E	.	.	.	.
2F	2A	1r	2.d	.
2G	[2B-y	.	.	.
.	.	.	4e	.
=	=	=	=	=
2D	4B-]	1B-y	2f	0r
.	4A	.	.	.
2.E-X	4G	.	2g	.
.	4F	.	.	.
.	2G	2B-y	2e-X	.
4D	.	.	.	.
2BB-y	2F	2B-y	2d	.
=	=	=	=	=
0C	2E	2G	1c	2r
.	2.F	2A	.	2cc
.	.	2G	2r	2cc
.	4D	.	.	.
.	2E	2G	2c	2cc
=	=	=	=	=
2r	1F	1A	2c	1.a
2F	.	.	2c	.
2F	1r	2r	2A	.
2F	.	2f	2c	2a
=	=	=	=	=
2D	2r	2f	1.d	2a
2D	2B-y	2f	.	2f
2.G	2B-y	2d	.	1g
.	2B-y	[2g	2B-y	.
4F	.	.	.	.
=	=	=	=	=
2E	2G	2g]	1c	2r
2F	2A	1f	.	2cc
1C	2G	.	2r	2cc
.	2G	2e	2c	2cc
=	=	=	=	=
2r	1F	2f	2c	1a
2A	.	2c	2c	.
2A	2r	2c	2A	2r
2A	2c	2c	2f	2a
=	=	=	=	=
4F	2c	2A	2f	2a
4G	.	.	.	.
2A	2c	2c	2f	2a
2D	2A	2d	2f	2f
2G	2B-y	2d	[2g	2b-y
=	=	=	=	=
2E	1c	2e	4g]	2g
.	.	.	4f	.
2C	.	2g	2e	1cc
1G	1d	2g	2d	.
.	.	2g	2g	2bnXi
=	=	=	=	=
1.C	[0cl	2.e	2g	[0ccl
.	.	.	2g	.
.	.	4f	.	.
.	.	2g	2e	.
[2F	.	[2a	[2f	.
=	=	=	=	=
2F]	0c_	2a]	2f]	0cc_
2E	.	2g	2g	.
1F	.	1f	1a	.
=	=	=	=	=
0C	0c]	0e	0g	0cc]
=||	=||	=||	=||	=||
*M2/1	*M2/1	*M2/1	*M2/1	*M2/1
*met(C|)	*met(C|)	*met(C|)	*met(C|)	*met(C|)
!!section: Secunda pars: Paries quidem
!!!OMD: Secunda pars: Paries quidem
0r	0r	1r	0r	1.cc
.	.	[1f	.	.
.	.	.	.	2dd
=	=	=	=	=
0r	0r	2f]	0r	2cc
.	.	2g	.	2b-y
.	.	2f	.	2a
.	.	2e	.	2g
=	=	=	=	=
0r	1r	2d	0r	2b-y
.	.	2f	.	2a
.	[1c	2.e	.	1g
.	.	4d	.	.
=	=	=	=	=
1.F	2c]	2c	0r	1a
.	2d	2.f	.	.
.	2c	.	.	1r
.	.	4e	.	.
2G	2B-y	[2d	.	.
=	=	=	=	=
2F	2A	2d]	1r	0r
2E	2G	1c	.	.
1D	2A	.	[1f	.
.	4G	2B-y	.	.
.	4F	.	.	.
=	=	=	=	=
2F	2A	1c	2f]	0r
2E	2G	.	2g	.
2D	4A	1r	2f	.
.	4B-y	.	.	.
2C	[2c	.	2e	.
=	=	=	=	=
1G	4c]	1.r	1d	1.g
.	4A	.	.	.
.	2B-y	.	.	.
1C	1c	.	[1e	.
.	.	[2c	.	2a
=	=	=	=	=
0r	0r	2c]	2e]	2g
.	.	2d	2.a	2f
.	.	2c	.	2e
.	.	.	4f	.
.	.	2B-y	2g	2d
=	=	=	=	=
1r	1.c	1A	1a	2e
.	.	.	.	2.cc
[1F	.	2r	1f	.
.	.	.	.	4b-y
.	2d	[2f	.	[2a
=	=	=	=	=
2F]	2c	4f]	0r	2a]
.	.	4e	.	.
2G	2B-y	1d	.	2g
2F	2A	.	.	4a
.	.	.	.	4e
2E	2G	2c	.	2g
=	=	=	=	=
1D	2A	1d	2r	1f
.	4G	.	1f	.
.	4F	.	.	.
2F	2A	1r	.	1r
2E	2G	.	2g	.
=	=	=	=	=
2D	2A	2r	2f	0r
2C	2.c	2g	2e	.
1G	.	2g	1d	.
.	4A	.	.	.
.	2B-y	2g	.	.
=	=	=	=	=
1C	1G	2e	2.e	2r
.	.	2g	.	2cc
.	.	.	4d	.
1r	1A	2f	1c	2cc
.	.	2e	.	2cc
=	=	=	=	=
0r	1F	2d	0r	2a
.	.	2c	.	2cc
.	1r	2g	.	2b-y
.	.	[2c	.	2a
=	=	=	=	=
0r	0r	2c]	1r	2g
.	.	2d	.	2f
.	.	2e	1A	2cc
.	.	4d	.	2f
.	.	4c	.	.
=	=	=	=	=
0r	1.r	4d	2G	2b-y
.	.	4e	.	.
.	.	1f	2F	2a
.	.	.	1c	1g
.	2c	2e	.	.
=	=	=	=	=
2r	2c	2.f	1F	0a
2F	2c	.	.	.
.	.	4e	.	.
2F	2A	2c	2r	.
2F	2c	2A	2f	.
=	=	=	=	=
2D	2B-y	0d	2f	0r
2D	2A	.	2f	.
2BB-y	2G	.	2d	.
2D	2F	.	2f	.
=	=	=	=	=
2C	2c	2r	2e	0r
2BB-y	1F	2.f	2d	.
2FF	.	.	2c	.
.	.	4e	.	.
[2BB-y	[2B-y	4d	2B-y	.
.	.	4c	.	.
=	=	=	=	=
2BB-]	4B-]	2.d	1f	2r
.	4A	.	.	.
2D	2F	.	.	2a
.	.	4c	.	.
2E	2G	2B-y	2B-y	2g
[2F	[2A	2A	[2d	2f
=	=	=	=	=
4F]	2A]	4c	4d]	1cc
4E	.	4d	4c	.
2C	2G	2e	1c	.
1D	2.F	2d	.	1f
.	.	[2f	2BnXi	.
.	4G	.	.	.
=	=	=	=	=
2.C	2A	2f]	0c	2.cc
.	2G	2.e	.	.
4D	.	.	.	4b-y
2E	4c	.	.	2g
.	4B-y	4d	.	.
[2F	4A	4c	.	[2a
.	4G	4B-y	.	.
=	=	=	=	=
2F]	2A	2c	1.r	4a]
.	.	.	.	4g
2BB-y	2B-y	2d	.	1f
1C	1G	1c	.	.
.	.	.	2c	2e
=	=	=	=	=
2r	0F	0A	2c	1f
2F	.	.	2c	.
2F	.	.	[1f	1r
2F	.	.	.	.
=	=	=	=	=
1.B-y	0r	0r	2f]	1f
.	.	.	2e	.
.	.	.	2d	2f
2A	.	.	2c	2f
=	=	=	=	=
2G	0r	2r	2B-y	2b-y
2F	.	2c	2.c	2a
2E	.	2c	.	2g
.	.	.	4B-y	.
[2F	.	2c	4A	2f
.	.	.	4G	.
=	=	=	=	=
2F]	0r	1.f	1F	2a
4E	.	.	.	4g
4D	.	.	.	4f
1C	.	.	1c	2a
.	.	2e	.	[2g
=	=	=	=	=
0r	1r	2d	2B-y	2g]
.	.	1c	2A	2f
.	1G	.	1d	1g
.	.	2BnXi	.	.
=	=	=	=	=
1C	2G	1c	2e	2.cc
.	2A	.	4d	.
.	.	.	4c	4b-y
2C	[1c	2r	4e	2a
.	.	.	2f	.
2C	.	2c	.	2g
.	.	.	4e	.
=	=	=	=	=
1.F	2c]	2c	2f	0a
.	2B-y	2c	2c	.
.	2A	[1f	2c	.
2E	2G	.	2c	.
=	=	=	=	=
2D	2F	2f]	1.f	1.r
2C	2G	2e	.	.
2BB-y	4B-y	2d	.	.
.	4A	.	.	.
2C	4G	[2c	[2e	2cc
.	4F	.	.	.
=	=	=	=	=
2E	2G	4c]	4e]	2cc
.	.	4B-y	4d	.
2F	2A	4A	2.c	2cc
.	.	4G	.	.
1D	1F	2A	.	[1ff
.	.	.	4A	.
.	.	4G	2B-y	.
.	.	4F	.	.
=	=	=	=	=
1C	2r	1G	1c	2ff]
.	2G	.	.	2.ee
1r	2G	2r	[1e	.
.	.	.	.	4dd
.	2G	2c	.	4cc
.	.	.	.	4b-y
=	=	=	=	=
0r	1.c	2c	2e]	2a
.	.	2c	2e	2g
.	.	2f	1d	2a
.	2B-y	2f	.	2b-y
=	=	=	=	=
1.r	2c	2e	2e	2g
.	2A	4d	2f	2.cc
.	.	4c	.	.
.	1G	2d	2g	.
.	.	.	.	8b-yL
.	.	.	.	8aJ
2G	.	2d	2g	4b-y
.	.	.	.	4cc
=	=	=	=	=
2A	2r	1c	1e	2a
2E	2c	.	.	2g
1F	2d	1A	1r	1f
.	2A	.	.	.
=	=	=	=	=
1G	1B-y	1.r	2r	0r
.	.	.	2g	.
2F	2c	.	2a	.
2E	2G	2c	2e	.
=	=	=	=	=
1D	2A	2d	4f	1r
.	.	.	4g	.
.	2F	1f	4a	.
.	.	.	4f	.
1C	1c	.	1g	1cc
.	.	2e	.	.
=	=	=	=	=
0r	1r	2d	2f	2dd
.	.	2c	2e	2a
.	1G	2.g	1d	1b-y
.	.	4f	.	.
=	=	=	=	=
1C	2A	4e	1c	1cc
.	.	4d	.	.
.	2E	4c	.	.
.	.	4B-y	.	.
2D	2F	1A	2r	1r
2AA	2A	.	2c	.
=	=	=	=	=
2BB-y	2G	0r	2d	2r
1D	2F	.	2A	1f
.	1G	.	2B-y	.
2C	.	.	[2c	2e
=	=	=	=	=
2D	1r	0r	4c]	2f
.	.	.	4B-y	.
1C	.	.	2e-i	2g
.	[1F	.	1d	2a
2BB-y	.	.	.	2b-y
=	=	=	=	=
1C	2F]	2r	1c	1g
.	2E	1c	.	.
1D	1F	.	1r	1f
.	.	2B-y	.	.
=	=	=	=	=
2E	2G	2c	2r	1r
2F	1A	2c	1c	.
1D	.	1d	.	[1f
.	4G	.	2B-y	.
.	4F	.	.	.
=	=	=	=	=
1C	1G	2r	1c	2f]
.	.	2G	.	2e
2r	1r	2B-y	2d	2f
[2C	.	2G	2e	2g
=	=	=	=	=
2C]	1.F	1d	2f	2a
2BB-y	.	.	2d	2b-y
1C	.	1G	2c	1g
.	2E	.	2e	.
=	=	=	=	=
2D	2F	2r	2d	1r
2E	2G	2B-y	2g	.
2F	2A	2d	2f	1dd
2G	2B-y	2B-y	[2d	.
=	=	=	=	=
1C	1G	2.c	4d]	1ee
.	.	.	4c	.
.	.	.	1c	.
.	.	4B-y	.	.
1D	2F	2A	.	1ff
.	2D	4G	2BnXi	.
.	.	4F	.	.
=	=	=	=	=
0C	2E	2G	1c	4ee
.	.	.	.	4dd
.	2.F	2A	.	4cc
.	.	.	.	4b-y
.	.	1G	2r	1cc
.	4D	.	.	.
.	2E	.	2c	.
=	=	=	=	=
2r	1F	0A	2c	2r
2F	.	.	2c	2a
2F	1r	.	1d	2a
2F	.	.	.	2a
=	=	=	=	=
1G	1.r	0r	2B-y	1b-y
.	.	.	2.e-X	.
2E	.	.	.	2g
.	.	.	4d	.
[2F	2c	.	4c	2a
.	.	.	4B-y	.
=	=	=	=	=
2F]	2c	0r	2A	2f
2E	2c	.	2G	1g
1D	1d	.	1A	.
.	.	.	.	2f#i
=	=	=	=	=
2E	2.B-y	2r	0r	1g
2G	.	2d	.	.
.	4A	.	.	.
1G	4B-y	2d	.	2r
.	2c	.	.	.
.	.	2d	.	2g
.	4B-y	.	.	.
=	=	=	=	=
2C	1.c	1e	0r	2g
2C	.	.	.	2g
1F	.	2c	.	1a
.	2A	[2f	.	.
=	=	=	=	=
1BB-y	1.B-y	4f]	2r	2f
.	.	4e	.	.
.	.	4d	2f	2.b-y
.	.	4c	.	.
1r	.	2d	2f	.
.	.	.	.	4g
.	2A	2c	2f	[2cc
=	=	=	=	=
1.r	1G	1d	1g	2cc]
.	.	.	.	2b-y
.	2A	[1c	2e	2.cc
2F	2A	.	[2f	.
.	.	.	.	4b-y
=	=	=	=	=
2F	2A	1c]	2f]	4a
.	.	.	.	4g
2F	2A	.	2e	1cc
1G	1B-y	2r	2.d	.
.	.	2g	.	2b-y
.	.	.	8cL	.
.	.	.	8dJ	.
=	=	=	=	=
2E	2G	2g	4e	2cc
.	.	.	4d	.
1F	2c	2a	4c	2f
.	.	.	4B-y	.
.	2c	2f	2A	4a
.	.	.	.	4b-y
2E	2c	[2g	2G	2cc
=	=	=	=	=
1D	1d	2g]	1A	1a
.	.	2f	.	.
2E	2B-y	2g	[1G	2r
4C	[2c	[2e	.	2cc
4D	.	.	.	.
=	=	=	=	=
4E	2c]	2e]	1G]	4g
4F	.	.	.	4a
1G	2B-y	2d	.	4b-y
.	.	.	.	4g
.	1A	2e	1c	2a
2F	.	2f	.	[2cc
=	=	=	=	=
1G	4G	1d	2r	2cc]
.	4A	.	.	.
.	2B-y	.	2g	2bnXi
2C	2G	1c	2e	1cc
2F	2A	.	2c	.
=	=	=	=	=
2D	2F	2r	1f	2r
2BB-y	2D	2d	.	2b-y
1E-X	1G	2B-y	2r	2g
.	.	2G	2g	2e-X
=	=	=	=	=
2r	2r	1c	2e	1a
2F	2A	.	2c	.
2D	2F	2r	1f	2r
2BB-y	2D	2d	.	2b-y
=	=	=	=	=
1E-X	1G	2B-y	2r	2g
.	.	2G	2g	2e-X
1C	2r	2c	2e	2a
.	2c	2e	2c	2g
=	=	=	=	=
2D	2A	2d	1f	4f
.	.	.	.	4g
2D	2F	2d	.	4a
.	.	.	.	4f
2.C	1c	1G	[1e	4g
.	.	.	.	4e
.	.	.	.	[2g
4D	.	.	.	.
=	=	=	=	=
2E	2B-y	1.r	2e]	4g]
.	.	.	.	4f
2F	2A	.	2d	1f
1C	1G	.	1c	.
.	.	2c	.	2e
=	=	=	=	=
1F	[0Fl	2A	2c	[0fl
.	.	2F	2c	.
2r	.	1c	2A	.
2F	.	.	2F	.
=	=	=	=	=
2D	0F_	1d	1B-y	0f_
2BB-y	.	.	.	.
2F	.	2c	2A	.
4BB-y	.	[2B-y	[2d	.
4C	.	.	.	.
=	=	=	=	=
4D	0F_	2B-]	2d]	0f_
4E	.	.	.	.
2F	.	2A	2c	.
2D	.	1d	1B-y	.
2BB-y	.	.	.	.
=	=	=	=	=
0Fl	0F]	0cl	0Al	0f]
==	==	==	==	==
*-	*-	*-	*-	*-
!!!system-decoration: [*]
!!!RDF**kern: i = editorial accidental
!!!RDF**kern: l = terminal long
!!!ENC: Janosch Umbreit
!!!END: 2025/11/02
!!!EED: Benjamin Ory
!!!EEV: 2025/11/04
!!!YEC: Copyright 2025 Benjamin Ory, All Rights Reserved
!!!ONB: Translated from MusicXML on 2025/11/04